mobile/24/svg/logo-firefox-24.svg

<svg width="24" height="24" viewBox="0 0 24 24" fill="none" xmlns="http://www.w3.org/2000/svg">
<path d="M21.334 8.85203C20.922 7.85303 20.223 6.99803 19.326 6.39503C19.817 7.31503 20.159 8.30803 20.34 9.33603V9.35703C19.215 6.62603 17.289 5.52503 15.716 3.12903L15.48 2.75403C15.436 2.68003 15.401 2.61403 15.37 2.55303C15.305 2.43203 15.255 2.30403 15.221 2.17103C15.221 2.16603 15.219 2.16103 15.216 2.15703C15.213 2.15303 15.209 2.14903 15.205 2.14703C15.197 2.14403 15.189 2.14403 15.181 2.14703H15.174C14.216 2.70903 13.404 3.49003 12.806 4.42503C12.208 5.36103 11.839 6.42503 11.731 7.53003C11.848 7.52303 11.965 7.51303 12.083 7.51303C12.966 7.50903 13.836 7.73602 14.605 8.17102C15.374 8.60602 16.017 9.23302 16.47 9.99202C15.76 9.51902 14.903 9.31802 14.057 9.42602C14.89 9.85902 15.545 10.572 15.905 11.44C16.265 12.308 16.309 13.274 16.028 14.171C15.747 15.067 15.159 15.836 14.368 16.343C13.577 16.85 12.633 17.061 11.701 16.941C11.257 16.922 10.818 16.837 10.399 16.691C10.302 16.656 10.203 16.617 10.105 16.575C10.048 16.55 9.99104 16.525 9.93604 16.498C9.30804 16.212 8.76304 15.771 8.35104 15.218C7.93904 14.665 7.67203 14.017 7.57703 13.333C7.57703 13.333 8.03804 11.666 10.885 11.666C11.399 11.46 11.824 11.081 12.09 10.595C11.242 10.201 10.43 9.73403 9.66403 9.19803C9.30103 8.84903 9.12804 8.68203 8.97404 8.55703C8.89204 8.49003 8.81404 8.43202 8.71504 8.36702C8.48804 7.59602 8.47804 6.77603 8.68804 6.00003C7.77004 6.42903 6.94904 7.04203 6.27804 7.80203C5.96804 7.03303 5.85004 6.20003 5.93304 5.37503C5.81604 5.42203 5.70404 5.48003 5.59904 5.54803C5.25004 5.78903 4.92203 6.06003 4.62003 6.35903C4.27903 6.69403 3.96704 7.05703 3.68604 7.44303C3.04304 8.32003 2.58404 9.31803 2.33604 10.377C2.33604 10.388 2.24103 10.783 2.17203 11.27L2.14104 11.497C2.11704 11.643 2.10004 11.803 2.08104 12.052V12.081C2.07504 12.176 2.06704 12.281 2.06104 12.403V12.453C2.10504 15.064 3.18403 17.552 5.06003 19.368C6.93703 21.184 9.45804 22.181 12.069 22.139C14.397 22.169 16.662 21.379 18.467 19.908C20.272 18.437 21.502 16.378 21.942 14.091L21.987 13.716C22.193 12.067 21.968 10.39 21.334 8.85203Z" fill="#15141A"/>
</svg>

<svg width="24" height="24" fill="none" xmlns="http://www.w3.org/2000/svg"><path d="M21.334 8.852a5.478 5.478 0 0 0-2.008-2.457c.491.92.833 1.913 1.014 2.941v.021c-1.125-2.731-3.051-3.832-4.624-6.228l-.236-.375a3.38 3.38 0 0 1-.11-.201 1.692 1.692 0 0 1-.154-.396.035.035 0 0 0-.011-.01.033.033 0 0 0-.024 0h-.007a7.04 7.04 0 0 0-3.443 5.383c.117-.007.234-.017.352-.017a5.078 5.078 0 0 1 4.387 2.479 3.543 3.543 0 0 0-2.413-.566 3.996 3.996 0 0 1 1.971 4.745 4.004 4.004 0 0 1-4.327 2.77 4.55 4.55 0 0 1-1.765-.443 4.093 4.093 0 0 1-2.359-3.165s.461-1.667 3.308-1.667a2.386 2.386 0 0 0 1.205-1.071 15.96 15.96 0 0 1-2.426-1.397c-.363-.349-.536-.516-.69-.641a2.947 2.947 0 0 0-.259-.19A4.356 4.356 0 0 1 8.688 6a7.386 7.386 0 0 0-2.41 1.802 5.12 5.12 0 0 1-.345-2.427 1.956 1.956 0 0 0-.334.173 7.23 7.23 0 0 0-.979.811 8.682 8.682 0 0 0-.934 1.084 8.076 8.076 0 0 0-1.35 2.934c0 .011-.095.406-.164.893l-.031.227a6.357 6.357 0 0 0-.06.555v.029c-.006.095-.014.2-.02.322v.05a9.853 9.853 0 0 0 10.008 9.686 9.926 9.926 0 0 0 9.873-8.048l.045-.375a9.634 9.634 0 0 0-.653-4.864z" fill="#15141A"/></svg>
